src/components/00-materials/images-raw/Activity.svg

<svg width="96" height="96" viewBox="0 0 96 96" fill="none" xmlns="http://www.w3.org/2000/svg">
<path d="M71.25 18.84C71.2677 17.3061 70.8299 15.8013 69.9918 14.5164C69.1538 13.2315 67.9533 12.2242 66.5423 11.6221C65.1313 11.02 63.5734 10.8502 62.0659 11.1342C60.5584 11.4181 59.169 12.1431 58.0738 13.2173C56.9786 14.2915 56.2268 15.6665 55.9137 17.1682C55.6005 18.67 55.7401 20.2309 56.3147 21.6533C56.8894 23.0756 57.8732 24.2955 59.1416 25.1583C60.41 26.0211 61.906 26.488 63.44 26.5C64.4563 26.5119 65.465 26.323 66.4081 25.9441C67.3512 25.5652 68.2102 25.0038 68.9359 24.2921C69.6615 23.5804 70.2395 22.7324 70.6366 21.7968C71.0337 20.8612 71.2421 19.8564 71.25 18.84V18.84Z" stroke="#00008F" stroke-width="2" stroke-linecap="round" stroke-linejoin="round"/>
<path d="M29.85 60.54C28 61.24 23 62 14.84 62.8C14.2968 62.8654 13.7719 63.038 13.296 63.3079C12.8201 63.5778 12.4025 63.9395 12.0676 64.3722C11.7326 64.8048 11.487 65.2997 11.3449 65.828C11.2028 66.3564 11.1672 66.9077 11.24 67.45C11.3183 67.9961 11.5038 68.5214 11.7856 68.9957C12.0675 69.47 12.4403 69.8839 12.8826 70.2138C13.3248 70.5436 13.8279 70.7829 14.3629 70.9178C14.8978 71.0527 15.4542 71.0807 16 71C23.77 70.34 29.18 69.52 32.12 68.54C35.95 67.27 40.93 64.08 44.78 60.54C49.08 62.18 55.46 66.54 57.59 69.11C58.85 70.66 61.14 75.11 64.51 82.62C64.9835 83.6028 65.8259 84.359 66.8539 84.7241C67.8819 85.0893 69.0126 85.0339 70 84.57C70.9834 84.0759 71.733 83.2146 72.0866 82.1724C72.4403 81.1302 72.3696 79.9906 71.89 79C68.79 71.84 66.29 67 64.43 64.51C62 61.27 57.43 57.57 52.82 55.05C55.3533 49.8633 58.02 44.7234 60.82 39.63C69.71 42.53 78.11 39.12 84.05 30.25C84.3818 29.7959 84.6142 29.2768 84.7318 28.7268C84.8495 28.1768 84.8498 27.6081 84.7328 27.0579C84.6158 26.5077 84.3841 25.9884 84.0527 25.5339C83.7214 25.0794 83.2979 24.6998 82.81 24.42C82.3576 24.0975 81.8439 23.8712 81.3006 23.7552C80.7573 23.6392 80.196 23.6359 79.6514 23.7456C79.1067 23.8553 78.5904 24.0756 78.1344 24.3928C77.6783 24.7101 77.2922 25.1175 77 25.59C72.7 32.31 66.23 33.52 59.08 29C58.91 28.89 58.47 28.65 57.68 28.22L57.23 28L56.77 27.74L56.19 27.42C45.43 20.67 34.51 23.18 27.19 34.09C26.8631 34.5235 26.6339 35.0227 26.5183 35.5532C26.4027 36.0837 26.4034 36.633 26.5203 37.1632C26.6371 37.6934 26.8675 38.1921 27.1954 38.6248C27.5233 39.0575 27.9411 39.4141 28.42 39.67C28.8659 39.9793 29.3701 40.1947 29.9019 40.3029C30.4337 40.4111 30.982 40.41 31.5133 40.2997C32.0447 40.1893 32.548 39.9719 32.9927 39.6608C33.4374 39.3497 33.8141 38.9514 34.1 38.49C35.3619 36.0258 37.4852 34.1112 40.0664 33.1101C42.6475 32.109 45.5065 32.0912 48.1 33.06C45.89 37.13 40.37 48.23 39.8 49.72L39.72 49.93C37.59 54.06 37.3 57.52 29.85 60.54Z" stroke="#00008F" stroke-width="2" stroke-miterlimit="10"/>
</svg>

<svg width="96" height="96" viewBox="0 0 96 96" fill="none" xmlns="http://www.w3.org/2000/svg"><path d="M71.25 18.84a7.75 7.75 0 10-7.81 7.66 7.72 7.72 0 007.81-7.66v0z" stroke="#00008F" stroke-width="2" stroke-linecap="round" stroke-linejoin="round"/><path d="M29.85 60.54C28 61.24 23 62 14.84 62.8a4.13 4.13 0 00-3.6 4.65A4.19 4.19 0 0016 71c7.77-.66 13.18-1.48 16.12-2.46 3.83-1.27 8.81-4.46 12.66-8 4.3 1.64 10.68 6 12.81 8.57 1.26 1.55 3.55 6 6.92 13.51A4.14 4.14 0 0070 84.57 4.19 4.19 0 0071.89 79c-3.1-7.16-5.6-12-7.46-14.49-2.43-3.24-7-6.94-11.61-9.46a359.69 359.69 0 018-15.42c8.89 2.9 17.29-.51 23.23-9.38a4 4 0 00-1.24-5.83A4.061 4.061 0 0077 25.59c-4.3 6.72-10.77 7.93-17.92 3.41-.17-.11-.61-.35-1.4-.78l-.45-.22-.46-.26-.58-.32c-10.76-6.75-21.68-4.24-29 6.67a3.76 3.76 0 001.23 5.58 3.999 3.999 0 005.68-1.18 11.29 11.29 0 0114-5.43c-2.21 4.07-7.73 15.17-8.3 16.66l-.08.21c-2.13 4.13-2.42 7.59-9.87 10.61z" stroke="#00008F" stroke-width="2" stroke-miterlimit="10"/></svg>
